X:234
T:The Red-haired Lass
R:reel
M:4/4
L:1/8
K:Gmaj
DG{A}GF ~G3 E|DGBG AGEG|DG{A}GF GABd|egdB cBAG|
DG{A}GF GABG|DGBG AGEG|DG{A}GF GABd|gedB ~c2 Bc||
d2 gd edgd|(3ddd gd BABc|d2 gd edef|gedB ~c2 Bc|
d2 gd edgd|(3ddd gd BABd|~c3 A BcBA|GABd edBA||

